!!!COM: Anon.
!!!OTL: Ave Maria
!!!SCA: folio 284'-285
!!!YOR: from 'Thirty-Five Conductus for Two and Three Voices', pp.81-84
!!!YOR: edited by Janet Knapp, Collegium Musicum No. 6, Yale University (1965)
!!!YOR: from the School of Notre Dame; circa 1170-1240
!!!YOO: Yale University
!!!YOY: 1965
**kern	**kern
*M6/8	*M6/8
=1	=1
4.G	4.B-
4.r	4.r
=2	=2
4.F	8c
.	8B-
.	8A
4.r	4.G
=3	=3
4.A	4.F
4B-	4.r
8A	.
=4	=4
4.G	4G
.	8A
4.r	4B-
.	8A
=5	=5
4.c	4.G
4c	4G
8c	8A
=6	=6
4.B-	4.F
4B-	4.r
8B-	.
=7	=7
4.A	4.G
4A	4.F
8A	.
=8	=8
4.G	8G
.	8F
.	8E
4.r	4.D
=9	=9
2.A	4.D
.	4E
.	8F
=10	=10
4.G	4.G
4.r	4.r
=11	=11
4.c	8c
.	8B-
.	8A
4d	4.G
8e	.
=12	=12
4.d	4.G
4d	4.r
8d	.
=13	=13
4.c	4G
.	8A
4c	4B-
8c	8A
=14	=14
4.B-	4.F
4.r	4.G
=15	=15
4.A	4.A
4B-	4B-
8c	8A
=16	=16
4.B-	4.G
4.B-	4.F
=17	=17
4A	4.d
8G	.
4.F	4d
.	8d
=18	=18
4.D	4.d
4.D	4d
.	8d
=19	=19
4.A	8c
.	8B-
.	8A
4.A	4.G
=20	=20
4.F	4.B-
4.r	4.r
=21	=21
4.c	4.c
4d	4c
8e	8c
=22	=22
4.d	4.B-
4d	4B-
8d	8B-
=23	=23
4.c	4.A
4c	4A
8c	8A
=24	=24
4.B-	4.G
4.r	4.F
=25	=25
4.A	4.A
4B-	4B-
8c	8A
=26	=26
4.B-	4.G
4.B-	4.F
=27	=27
4A	4.d
8G	.
4.F	4d
.	8d
=28	=28
4.A	4.d
4.D	4d
.	8d
=29	=29
4.A	8c
.	8B-
.	8A
4.r	4.G
=30	=30
4.B-	4.F
4c	4.r
8B-	.
=31	=31
4.A	4.B-
4.G	4c
.	8B-
=32	=32
2.F	4.A
.	4.A
=33	=33
4.G	4.G
4.r	4.r
=34	=34
4.B-	4.B-
4B-	4B-
8c	8A
=35	=35
4.d	4.G
4.r	4.r
=36	=36
4.f	4.F
8e	4.G
8d	.
8c	.
=37	=37
4.A	4.A
4.r	4.r
=38	=38
4.c	2.c
4c	.
8B-	.
=39	=39
4A	4.d
8G	.
4.A	4.e
=40	=40
2.F	4f
.	8d
.	4.e
=41	=41
4.G	4.d
4.r	4.r
=42	=42
4.c	4c
.	8d
4Bn	4e
8A	8d
=43	=43
4.c	8c
.	8B
.	8A
4.r	4.G
=44	=44
4.d	4.G
4.e	4.c
=45	=45
4.d	4.d
4.r	4.r
=46	=46
4e	4.e
8f	.
4g	4.d
8f	.
=47	=47
4.g	4.c
4c	4.g
8r	.
=48	=48
4c	4c
8d	8r
4c	4r
8B-	8d
=49	=49
4.A	4.e
4.r	4.r
=50	=50
4B-	4f
8c	8g
4B-	8f
.	8e
8G	8d
=51	=51
4.A	4c
.	8r
4G	4d
8r	8e
=52	=52
4A	4c
8G	8B-
4.F	4.A
=53	=53
4.G	4.G
4.r	4.r
=54	=54
4.c	4.c
4.B	4.d
=55	=55
2.A	8e
.	16f
.	16e
.	8d
.	4.c
=56	=56
2.c	4f
.	8f
.	4.e
=57	=57
4.d	4.d
4.r	4.r
=58	=58
4.c	4c
.	8A
4.d	4B
.	8G
=59	=59
4.c	4.A
4d	4G
8r	8A
=60	=60
4c	4.c
8d	.
4e	4.r
8d	.
=61	=61
4.f	4.c
4.A	4.r
=62	=62
2.c	4f
.	8d
.	4.e
=63	=63
4.d	4.d
4.r	4.r
=64	=64
4.c	4e
.	8f
4.d	4g
.	8d
=65	=65
4.c	4.e
4d	4d
8r	8e
=66	=66
4c	4.f
8d	.
4f	4.r
8d	.
=67	=67
4.e	4.c
4G	4d
8r	8e
=68	=68
4A	4c
8G	8B
4.F	4.A
=69	=69
4.G	4.G
4.r	4.r
=70	=70
4.c	4.f
4d	4e
8e	8d
=71	=71
2.f	4.c
.	4c
.	8B
=72	=72
4e	4A
8d	8G
4d	4.A
8c	.
=73	=73
4.d	4.G
4.r	4.r
=74	=74
4e	4e
8d	8f
4.c	4g
.	8f
=75	=75
4.d	8e
.	8d
.	8e
4c	8f
.	8e
8r	8d
=76	=76
4f	4c
8e	8r
4.d	4d
.	8e
=77	=77
4.c	4f
.	8e
4d	4d
8r	8e
=78	=78
4c	4.g
8A	.
4c	4.r
8A	.
=79	=79
4.c	4.e
4d	4d
8r	8e
=80	=80
4d	4.g
8G	.
4G	4.r
8A	.
=81	=81
4.G	4e
.	8d
4F	8f
.	8e
8r	8d
=82	=82
4c	4c
8B	8r
4A	4e
8r	8f
=83	=83
4c	4g
8B	8g
4c	4f
8A	8f
=84	=84
4.c	4e
.	8e
4d	4d
8r	8r
=85	=85
4f	4c
8e	8r
4d	4d
8r	8e
=86	=86
4c	4f
8A	8r
4B-	8f
.	8e
8r	8d
=87	=87
4c	4c
8d	8r
4c	4.d
8G	.
=88	=88
4.A	4.c
4G	4.d
8r	.
=89	=89
[2.F	8d
.	16e
.	16d
.	16c
.	16B
.	4A
.	8B
=90	=90
4.F]	4.A
4G	4G
8r	8r
=91	=91
4.A	4.e
4.B	4.d
=92	=92
8c	2.c
8B	.
8A	.
4.G	.
=93	=93
4.A	4.d
4A	4e
8G	8c
=94	=94
4.G	4.d
4.r	4.r
=95	=95
4A	4e
8G	8d
4F	8f
.	8e
8r	8d
=96	=96
4c	4c
8B	8e
4A	4d
8r	8c
=97	=97
4c	4B
8d	8A
4e	4.B
8d	.
=98	=98
4d	4.A
8c	.
4d	4G
8r	8r
=99	=99
4.c	4c
.	8d
4.B	4e
.	8f
=100	=100
4.A	4e
.	8d
4.c	4.c
=101	=101
4B	4d
8A	8r
4G	4d
8r	8f
=102	=102
4.A	4e
.	8f
4.G	4g
.	8f
=103	=103
4A	4e
8G	8r
4F	8f
.	8e
8r	8d
=104	=104
4.c	4c
.	8r
4.B	4.d
=105	=105
4.A	4e
.	8d
4.c	8c
.	8B
.	8A
=106	=106
4B	4B
8A	8c
4G	4d
8r	8B
=107	=107
4.c	4G
.	8A
4.B	4B
.	8A
=108	=108
4.c	4G
.	8G
4A	4A
8r	8G
=109	=109
4c	4F
8d	8r
4e	4G
8d	8r
=110	=110
4d	4B
8B	8c
4G	4d
8r	8r
=111	=111
2.A	4.e
.	4e
.	8c
=112	=112
4.G	4.d
4.r	4.r
=113	=113
4.d	4.G
4.e	4A
.	8G
=114	=114
4.f	4.F
4e	8A
.	8G
8d	8A
=115	=115
4.e	4.B
4c	4c
8r	8r
=116	=116
4d	4.d
8c	.
4.A	4.e
=117	=117
4B-	4.d
8A	.
4.G	4.d
=118	=118
4A	4.c
8G	.
4F	4c
8r	8r
=119	=119
4A	4.e
8c	.
4B-	4.f
8B-	.
=120	=120
4B-	4e
8c	8d
4A	4e
8r	8r
=121	=121
4.c	4g
.	8g
4.d	4f
.	8f
=122	=122
4.c	4e
.	8e
4d	4d
8r	8d
=123	=123
4f	4c
8e	8r
4d	4d
8r	8e
=124	=124
4e	4.c
8f	.
4g	4.c
8g	.
=125	=125
4g	4.r
8f	.
4d	4d
8r	8e
=126	=126
4Bn	4f
8c	8e
4d	4d
8d	8e
=127	=127
4d	4g
8c	8f
4A	8e
.	8d
8r	8c
=128	=128
4G	4.d
8A	.
4B	4.e
8B	.
=129	=129
4c	4.d
8A	.
4F	4f
8r	8r
=130	=130
4.G	4.g
4A	8f
.	8e
8B	8d
=131	=131
4c	8c
.	8d
8B	8e
4B	8d
.	8d
8A	8c
=132	=132
4.G	4.d
4.r	4.r
=133	=133
4B-	4f
8c	8e-
4.d	4d
.	8d
=134	=134
4B-	4.e-
8c	.
4d	4d
8r	8r
=135	=135
4.e-	4e-
.	8c
4d	4d
8r	8r
=136	=136
4f	4.c
8e-	.
4d	4d
8e-	8r
=137	=137
4c	4f
8d	8e-
4.B-	4d
.	8d
=138	=138
4B-	8e-
.	8d
8A	8c
4G	4d
8r	8c
=139	=139
4.A	4A
.	8B-
4.G	4c
.	8B-
=140	=140
4A	4A
8G	8B-
4F	4c
8r	8r
=141	=141
4A	4.A
8c	.
4B-	4.G
8A	.
=142	=142
4B-	4.F
8c	.
4A	4A
8r	8r
=143	=143
4.c	4c
.	8Bn
4.d	4A
.	8B
=144	=144
4c	8c
.	8B
8d	8A
4d	4G
8r	8A
=145	=145
4c	4c
8e	8r
4d	4d
8e	8B
=146	=146
8g	4.c
8f	.
8e	.
4d	4d
8r	8r
=147	=147
4e	4e
8f	8d
4g	4c
8g	8r
=148	=148
4g	4d
8a	8e
4.c	4f
.	8e
=149	=149
4.d	4d
.	8e
4c	4g
8r	8r
=150	=150
4f	8f
.	8e
8g	8d
4e	4c
8d	8e
=151	=151
4d	8g
.	8f
8c	8e
4d	4d
8r	8r
=152	=152
4f	8c
.	8B
8g	8A
4e	8B
.	8A
8c	8G
=153	=153
4d	4A
8d	8c
4G	4d
8r	8r
=154	=154
4A	4d
8r	8e
4B-	4d
8c	8c
=155	=155
4B-	4c
8G	8Bn
4F	4c
8r	8r
=156	=156
4B-	8f
.	8e
8r	8d
4c	4c
8d	8d
=157	=157
4F	4c
8G	8B-
4A	4A
8r	8r
=158	=158
4B-	4f
8c	8e
4d	4d
8c	8c
=159	=159
8B-	4f
8A	.
8G	8g
4.B-	4f
.	8d
=160	=160
4.A	8e
.	8d
.	8c
4G	8d
.	8d
8r	8e
=161	=161
[2.F	16f
.	16e
.	16d
.	16c
.	16B
.	16A
.	4.G
=162	=162
4.F]	4.A
4G;	4G;
8r	8r
==	==
*-	*-
!!!ENC: David Huron
!!!YEC: Copyright 1987, David Huron
!!!EEV: 1.0
